X:1
T:Polyphonic Étude No. 1
T:Polyphonic Étude No. 1
T:Rondino Scherzo
T:Heinrich Wilhelm Ernst
C:Heinrich Wilhelm Ernst
%%score ( 1 2 3 )
L:1/8
Q:1/4=90
M:6/8
K:F
V:1 treble nm="Violin" snm="Vln."
V:2 treble 
V:3 treble 
V:1
"^Con spirito"!mf!"_Il faut faire ressortir le plus possible le chant et le dessein mélodique." .az/.f/.c Tc>=Bc | %1
 ._bz/.g/.e Tc>=Bc | .c'z/.a/.f .f'z/.e'/.d' | c'z/d'/b .a x2 | bz/a/"_cresc."b az/^g/a | %5
 [fd'] z z [fc'] z z |!f! !invertedturn!fz/e/f az/g/f | (f3!>(! e2) z!>)! | az/f/c Tcz/=B/c | %9
 _bz/g/e Tcz/=B/c | c'z/a/f f'z/e'/d' | c'z/d'/[eb]!<(! a x2!<)! | ^gz/^f/g"_cresc." az/g/a | %13
 =bz/a/b c'z/b/a | [fa]z/[eg]/[df] [ce]z/[=Bd]/[Ac] | [^G=B]z/e/d cz/c'/c' | %16
 c'z/=b/a [=eg][ec'][ge'] | a'2 x =b2 x | [Gec'] x2 x3 | [ge'] x2 x3 | f' x2 x3 | d' x2 e' z d' | %22
!f! c' x2 x3 | e' x2 x3 | f' x2 x3 | d' x2 e' z d' | [ec'] x2 x3 | %27
 [D=Bgf']z/[G,G]/[G,G] [G,Gf=b][Ee][Dd] | [CGec']z/[G,G]/[G,G] [G,G][=B,=B][Cc] | %29
 [D=Bgf']z/[G,G]/[G,G] [G,Gf=b][Ee][Dd] | [CGec']z/[G,G]/[G,G] [G,Gf=b][Ee][Dd] | %31
 [CGec']z/[G,G]/[G,G] [G,Gf=b][Ee][Dd] | [CGec']z/C/C TCz/=B,/C | %33
"_ritard. e dimin." !arpeggio!Tcz/=B/c Tcz/B/c ||[K:Ab]!p! (c2 c _d2 c) | (c3 B) z z | %36
 (B2 A!<(! GBe)!<)! | (d3 c/E/F/G/A/B/) | (c2 c d z c) | (c3 =Bgf) | (f z e e2 =d) | %41
 (=d2 c"^riten." c/G,/_D/c/B/e/) |!<(! (!arpeggio!c2 c!<)!!>(! d2 c)!>)! | %43
!<(! (c3!<)!!>(! B z z)!>)! |!<(! (B2 A GBe)!<)! |"^ten." (d z z c/E/F/G/A/B/) | %46
 ([Ec] z c) (=d z c) |!<(! (c/^A/=B/c/[G=d]/e/)!<)!!>(! (f/_a/g/f/e/d/)!>)! | ([Ge] z e) (f z e) | %49
!<(! (e/^c/=d/e/f/g/)!<)!!>(! (a/_c'/b/a/_g/f/)!>)! |!f! (._gz/.e/.B) (.az/.f/.B) | %51
 (._gz/.e/.B) (.az/.f/.B) | (_g/a/g/f/e/=d/)"_dimin." (e/_f/e/_d/_c/B/) | %53
!p!"^ten." (3(E/_F/A/ (3_c/_f/a/ (3_c'/_f'/a'/) (3(_c''/a'/f'/ (3c'/a/f/ (3c/A/F/) | %54
"^ten."!<(! (=A,/4C/4E/4_G/4=A/4c/4e/4_g/4=a/4c'/4e'/4c'/4)!<)!!>(! (_g'/4e'/4c'/4a/4g/4e/4c/4A/4G/4E/4C/4A,/4)!>)! | %55
!<(! (3(!fermata!B,/E/F/(3B/e/f/(3b/e'/f'/)!<)!!>(! (3(b'/f'/e'/(3b/f/e/(3B/F/E/)!>)! | %56
!<(! (!fermata!B,/4=D/4F/4A/4B/4=d/4f/4a/4b/4=d'/4f'/4a'/4)!<)!!>(! (c''/4b'/4a'/4f'/4d'/4b/4a/4f/4d/4B/4A/4F/4)!>)! | %57
!<(! (!fermata!E/4G/4B/4_d/4e/4g/4b/4d'/4!8va(!e'/4g'/4b'/4d''/4)!<)!!>(! (f''/4e''/4d''/4b'/4!8va)!"_poco rit."g'/4e'/4d'/4b/4g/4e/4d/4B/4)!>)! | %58
!p!!<(! !arpeggio!.[ec'] z .c'!<)!!>(! ._d' z .c'!>)! |!<(! (c'3!<)!!>(! b) z z!>)! | %60
 !arpeggio![eb] z a!<(! gbe'!<)! |!>(! (d'3!>)! c'/A/B/c/_d/e/) | %62
!mf! !arpeggio!.[Af] z .f (.=g2 .f) |"^ten." (f3 =e/)(_d'/c'/b/a/g/) |!<(! ([Af] z f)!<)! (g2 f) || %65
[K:F]!f! (e x e/z/4.e/4) (e2 e/d/) | %66
 ([Ec]/!<(![ce]/[eg]/[ec']/[ge']/z/4.[ge']/4)!<)! ([ge']/[=Bg]/[G,B]/[Bg]/[=be']/[fd']/) | %67
 (([ec']/G/C/G/[ce]/)z/4.[ce]/4) ([=Be]/F/G,/F/[Be]/[Fd]/) | %68
 ([G,Ec]/[ce]/[eg]/[ec']/[ge']/z/4.[ge']/4) ([ge']/[=Bg]/[G,B]/[Bg]/[fg']/[d=b]/) | %69
 (([ec']/G/C/G/[ce]/)z/4.[ce]/4) (([cf]/[Ac]/[CA]/[Ac]/[cf]/)z/4.[cf]/4) | %70
 (([cg]/[Ec]/[CE]/[Ec]/[cg]/)z/4.[cg]/4) (([ca]/[Fc]/[CF]/[Fc]/[ca]/)z/4.[ca]/4) | x3 a z z | %72
 _bz/g/c a z z |"^poco rit." _b x2"_dimin." ez/d/e | fz/e/f gz/^f/g |"^a tempo"!mf! az/f/c Tc>=Bc | %76
 _bz/g/c Tc>=Bc | c'z/a/f f'z/e'/d' | c'z/d'/[eb] [ca] x2 |"_cresc." bz/a/b az/^g/a | %80
!f! .[Ffd']2 x .[Fcc']2 x |!f! !invertedturn!fz/e/f az/g/f | (f3"^dim."!>(! e) x2!>)! | %83
!p! az/f/c Tc>=Bc | _bz/g/c Tc>=Bc | c'z/a/f f'z/e'/d' | c'z/d'/[Geb] a x2 | %87
 ^gz/^f/g"_cresc." az/g/a | =bz/a/b c'z/[Aa]/[Aa] | ^c'z/=b/c' d'z/c'/d' | e'z/d'/e' f'z/e'/d' | %91
!f! d'z/[Ac']/[Gb] az/g/f | ez/a/g fz/f/f | fz/e/d cz/[Af]/[ca] |!ff! d'2 x e x2 | .f2 x x3 | %96
 ._e'2 x .a2 x |"_cresc." .b2 x x3 | ._d'2 x .e2 x |!f! .f2 x x3 | ._e'2 x .a2 x | %101
"_cresc." .b2 x x3 | ._d'2 x .e2 x | [FAf]z/!f!"^sul G"!<(!C/C CEF!<)! | [Gec'b']z/C/C [CBge']AG | %105
 [FAcf']z/C/C CEF |"_sempre cresc." [Gec'b']z/C/C [CBge']AG | [FAcf']z/C/C [CGBe]z/A/G | %108
 [FAf]z/C/C [CGBe]AG | [FAf] z/ F/F!<(! TF>EF!<)! |"_dimin." Tf>ef Tf>ef | %111
!p!"_dolce" (!arpeggio![_Af] z f _g2 f) | (f3 _e z z) | ([_A_e] z!<(! _d ce_a)!<)! | %114
 (_g3 f/_A/B/c/_d/_e/) | !arpeggio!.[_Af]2 x!<(! (=g2 f)!<)! | =ez/!f!c'/c' c'z/C/C | %117
!p! !arpeggio![_Af] x2!<(! (=g2 f)!<)! | x3!>(! x3/2 c'/c'!>)! |!p! _d'z/d'/d' d' x2 | %120
 _d' x2 c'z/c'/c' | bz/b/b b x2 | b x2 _a x2 | =d'z/"_cresc."=b/a (Tg3{^fg} | =f') x2 G x2 | %125
 f'z/d'/c' (T=b3{ab} | a') x2 =B x2 |!f! c'z/a/f"_cresc." Tfz/e/f | f'z/c'/a Taz/^g/a | %129
 !arpeggio![cfa']f'c'"_pesante" !arpeggio![ac'']a'f' | !>!c'!>!a!>!f !>!c!>!A!>!F | %131
!ff! Cz/[A^fd']/[Afd'] [Afd'](C[Afd'] | [=Bgg']/)(f'/d'/=b/g/f/ d/B/G/F/D/=B,/ | %133
 C)z/.[G_Be]/.[GBe] .[GBe]/z/"_tirez"(C[Bec'] | d''/)(c''/b'/g'/e'/c'/ b/g/e/c/B/G/ | %135
 F) z z [Ecg] z z | [Fca] z z [CGec'] z z | [FAcf'] z z z2 z | a'3- a'3/2(f'/4c'/4 a/4f/4c/4A/4 | %139
 F) z z [FAcf'] z z | !fermata!z6 |] %141
V:2
 .[Fc] x x x3 | .[Gc] x x x3 | .A x2 .[Bd] x2 | [ce] x2 .[Fc]z/.E/._E | [Df] z [df][cf] z z | %5
 Bz/A/B Az/^G/A | [Dc] x2 [G,D=B] x2 | C x2 x3 | [Fc] x2 x3 | [Gc] x2 x3 | A x2 [Bd] z2 | %11
 [CGf] x2 F x2 | [Ee] z [D=B] [CA] x2 | [^G,Ed] x2 [A,Ec] x2 | D x2 [EA] x2 | %15
 E x2 [A,E]z/[AA]/[=GA] | [^F_e] x2 [G=e] x2 | D x2 [G,G] x2 | Cz/!p!G/E TCz/=B,/C | %19
 Bz/!p!G/C TCz/=B,/C | [Af]z/"_cresc."F/C TCz/=B,/C | [_Af]z/F/C [Af]z/F/[CAf] | %22
 [CGe]z/!p!G/C TCz/=B,/C | [Bg]z/G/C TCz/=B,/C | [Af]z/"_cresc."F/C TCz/=B,/C | %25
 [_Af]z/F/C [Af]z/F/[CAf] | [CG]z/!<(![G,G]/[G,G] [G,G][=B,=B][Cc]!<)! | x6 | x6 | x6 | x6 | x6 | %32
 x6 | C x2 x3 ||[K:Ab] A,/B,/C/D/=D/E/ F/E/=D/E/F/E/ | (_D/E/=E/F/E/_E/ D/E/D/C/B,/A,/) | %36
 G,/A,/B,/C/D/=D/ E/F/G/E/F/G/ | A/E/=D/E/F/E/ A/ x/ x2 | A,/B,/C/D/=D/E/ F/E/D/E/F/^F/ | %39
 G/^F/"^cresc."G/=D/G,/D/ G/=A/=B/G/A/B/ | c/G/G,/G/c/G/ =B/F/G,/F/B/F/ | %41
 F/E/"^dim."G,/E/c/E/ x2 G, | A,/B,/C/D/=D/E/ F/E/D/E/F/E/ | _D/E/=E/F/E/_E/ D/E/D/C/B,/A,/ | %44
 G,/A,/B,/C/D/=D/ E/F/G/E/F/G/ | A/E/A,/E/F/E/ A/ x/ x2 | A,/B,/C/D/=D/E/ F/E/D/E/F/^F/ | %47
 Gz/=D/=B, [G,D=B]/ x/ x2 | C/=D/E/F/^F/G/ A/G/=F/G/A/=A/ | Bz/F/=D [B,F=d]/ x/ x2 | %50
 [EB]/B/A/_G/F/E/ =D/_c/B/A/G/F/ | [EB]/B/A/_G/F/E/ =D/_c/B/A/G/F/ | [EB] x2 [=G,E] x2 | %53
 (3:2:2A,/ x x x4 | !wedge!_G2 x4 | x6 | x6 | x2!8va(! x2!8va)! x2 | %58
 (A/B/c/d/=d/e/ f/e/=d/e/f/e/) | (_d/e/=e/f/e/_e/ d/e/d/c/B/A/) | (G/A/B/c/d/=d/ e/f/g/e/f/g/) | %61
 a/e/=d/e/f/g/ a/ x/ x2 | (D/E/F/_G/=G/A/) (B/A/G/A/B/=B/) | c/=B/c/G/C/G/ c/ x/ x2 | %64
 (D/E/F/_G/=G/A/) (B/A/G/A/B/=B/) ||[K:F] c/G/C/G/c/x/4c/4 (=B/F/G,/F/B/F/) | G,2 x x2 x | x6 | %68
 x6 | x6 | x6 | x3 ^D x2 | [CEc] x2 ^D x2 | [CE] x2 [Cc] x2 | [Dc] x2 [Ec] x2 | [Fc] x2 x3 | %76
 [Gc] x2 x3 | A x2 [Bd] x2 | [CGf] x2 Fz/E/_E | [Df] x [df][cf] x2 | B,z/A,/B, A,z/^G,/A, | %81
 [Dc] x2 [G,D=B] x2 | C x2 x3 | [=Fc] x2 x3 | [Gc] x2 x3 | A x2 [Bd] x2 | [CGf] x2 F x2 | %87
 [Ee] x [C=B] [CA] x2 | [=B,^Ge] x2 [A,EA] x2 | [=GA] x2 [FA] x2 | [EA^c] x2 [DA] x2 | %91
 [G,DB] x2 [A,FA] x2 | [^CEA] x2 [DA]z/D/[=CD] | [=B,_A] x2 [C=A] x2 | [G,D]2 x [CG] x2 | %95
 [FA]z/!p!c/A TF>EF | [FA]z/c/d F x2 | [Fd]z/B/F TF>EF | F x2 F x2 | [FA]z/!p!c/A TF>EF | %100
 F x2 F x2 | dz/B/F TF>EF | F x2 F x2 | x6 | x6 | x6 | x6 | x6 | x6 | x6 | x6 | %111
 (_D/_E/F/_G/=G/_A/ B/A/=G/A/B/A/) | _G/_A/=A/B/A/_A/ G/A/G/F/_E/_D/ | %113
 C/_D/_E/F/_G/=G/ _A/B/c/A/B/c/ | _d/_A/_D/A/B/A/ d/ x/ x2 | _D/_E/F/_G/=G/_A/ B/A/G/A/B/=B/ | %116
 c x2 x3 | _D/_E/F/_G/=G/_A/ B/A/G/A/B/=B/ | [Cce]z/!f!c/c cz/c/c | c z z Bz/G/_E | %120
 (_E/!<(!=D/E/F/_G/=G/!<)! _A) z z | _A z z Gz/E/C | C/=B,/C/D/_E/=E/ Fz/_D/C | [=B,Gf] x2 x3 | %124
 dz/=B/A Dz/=B,/A, | [G,=Bg] x2 x3 | fz/d/c Fz/E/D | [CFA] x2 A x2 | [Af] x2 c x2 | x6 | x6 | x6 | %132
 x6 | x6 | x6 | x6 | x6 | x6 | [FAc] x2 x3 | x6 | x6 |] %141
V:3
 x6 | x6 | x6 | x6 | x6 | x6 | x6 | (.!invertedturn!Gz/.^F/.G Bz/A/G) | x6 | x6 | x6 | x3 cz/d/^d | %12
 x6 | x6 | x6 | x6 | x6 | ^fz/d/e =fz/e/d | x6 | x6 | x6 | x6 | x6 | x6 | x6 | x6 | x6 | x6 | x6 | %29
 x6 | x6 | x6 | x6 | x6 ||[K:Ab] x6 | x6 | x6 | x6 | x6 | x6 | x6 | x6 | x6 | x6 | x6 | x6 | x6 | %47
 x6 | x6 | x6 | x6 | x6 | x6 | (3:2:2_c/ x x x4 | x6 | x6 | x6 | x2!8va(! x2!8va)! x2 | x6 | x6 | %60
 x6 | x6 | x6 | x6 | x6 ||[K:F] x6 | x6 | x6 | x6 | x6 | x6 | [Ecb]z/g/c Tcz/=B/c | x3 cz/=B/c | %73
 cz/c/d x3 | x6 | x6 | x6 | x6 | x6 | x6 | x6 | x6 | .!invertedturn!Gz/.^F/.G (Bz/.A/.G) | x6 | %84
 x6 | x6 | x3 cz/d/^d | x6 | x6 | x6 | x6 | x6 | x6 | x6 | =Bz/G/A _Bz/A/G | x6 | x3 _ez/d/c | x6 | %98
 _dz/B/c dz/c/B | x6 | Az/c/d{/cd} _ez/d/c | F x2 x3 | _dz/B/c{/Bc} dz/c/B | x6 | x6 | x6 | x6 | %107
 x6 | x6 | x6 | x6 | x6 | x6 | x6 | x6 | x6 | x6 | x6 | x6 | x6 | B3 x3 | x6 | G3 x3 | x6 | x6 | %125
 x6 | x6 | x6 | x6 | x6 | x6 | x6 | x6 | x6 | x6 | x6 | x6 | x6 | x6 | x6 | x6 |] %141

